flaticon/household/couch-2.svg

<svg xmlns="http://www.w3.org/2000/svg" width="32" height="32" viewBox="0 0 24 24">
    <path d="M16.917969 9.484375C16.996094 9.5625 17.097656 9.601562 17.199219 9.601562 17.300781 9.601562 17.40625 9.5625 17.484375 9.484375L17.851562 9.113281C18.023438 9.199219 18.210938 9.246094 18.398438 9.246094 18.589844 9.246094 18.777344 9.199219 18.949219 9.113281L19.316406 9.484375C19.394531 9.5625 19.496094 9.601562 19.601562 9.601562 19.703125 9.601562 19.804688 9.5625 19.882812 9.484375 20.039062 9.328125 20.039062 9.074219 19.882812 8.917969L19.515625 8.550781C19.683594 8.203125 19.683594 7.796875 19.515625 7.449219L19.882812 7.082031C20.039062 6.925781 20.039062 6.671875 19.882812 6.515625 19.726562 6.359375 19.472656 6.359375 19.316406 6.515625L18.949219 6.886719C18.601562 6.714844 18.195312 6.714844 17.851562 6.886719L17.480469 6.515625C17.324219 6.359375 17.074219 6.359375 16.917969 6.515625 16.761719 6.671875 16.761719 6.925781 16.917969 7.082031L17.285156 7.449219C17.113281 7.796875 17.113281 8.203125 17.285156 8.550781L16.917969 8.917969C16.761719 9.074219 16.761719 9.328125 16.917969 9.484375zM18.71875 7.683594C18.890625 7.859375 18.890625 8.140625 18.71875 8.316406 18.542969 8.492188 18.257812 8.492188 18.082031 8.316406 17.90625 8.140625 17.90625 7.859375 18.082031 7.683594 18.171875 7.59375 18.285156 7.550781 18.398438 7.550781 18.515625 7.550781 18.628906 7.59375 18.71875 7.683594zM10.515625 9.484375C10.59375 9.5625 10.699219 9.601562 10.800781 9.601562 10.902344 9.601562 11.003906 9.5625 11.082031 9.484375L11.449219 9.113281C11.625 9.199219 11.8125 9.246094 12 9.246094 12.1875 9.246094 12.375 9.199219 12.550781 9.113281L12.917969 9.484375C12.996094 9.5625 13.097656 9.601562 13.199219 9.601562 13.300781 9.601562 13.40625 9.5625 13.484375 9.484375 13.640625 9.328125 13.640625 9.074219 13.484375 8.917969L13.113281 8.550781C13.285156 8.203125 13.285156 7.796875 13.113281 7.449219L13.484375 7.082031C13.640625 6.925781 13.640625 6.675781 13.484375 6.519531 13.328125 6.359375 13.074219 6.359375 12.917969 6.519531L12.550781 6.886719C12.203125 6.714844 11.796875 6.714844 11.449219 6.886719L11.082031 6.519531C10.925781 6.359375 10.671875 6.359375 10.515625 6.519531 10.359375 6.675781 10.359375 6.925781 10.515625 7.082031L10.886719 7.453125C10.714844 7.796875 10.714844 8.203125 10.886719 8.550781L10.515625 8.917969C10.359375 9.074219 10.359375 9.328125 10.515625 9.484375zM12.316406 7.683594C12.492188 7.859375 12.492188 8.140625 12.316406 8.316406 12.140625 8.492188 11.859375 8.492188 11.683594 8.316406 11.507812 8.140625 11.507812 7.859375 11.683594 7.683594 11.769531 7.59375 11.886719 7.550781 12 7.550781 12.113281 7.550781 12.230469 7.59375 12.316406 7.683594zM4.117188 9.484375C4.195312 9.5625 4.296875 9.601562 4.398438 9.601562 4.503906 9.601562 4.605469 9.5625 4.683594 9.484375L5.050781 9.113281C5.222656 9.199219 5.410156 9.246094 5.601562 9.246094 5.789062 9.246094 5.976562 9.199219 6.148438 9.113281L6.515625 9.484375C6.59375 9.5625 6.699219 9.601562 6.800781 9.601562 6.902344 9.601562 7.003906 9.5625 7.082031 9.484375 7.238281 9.328125 7.238281 9.074219 7.082031 8.917969L6.714844 8.550781C6.886719 8.203125 6.886719 7.796875 6.714844 7.449219L7.082031 7.082031C7.238281 6.925781 7.238281 6.675781 7.082031 6.519531 6.925781 6.359375 6.671875 6.359375 6.515625 6.519531L6.148438 6.886719C5.804688 6.714844 5.398438 6.714844 5.050781 6.886719L4.683594 6.519531C4.527344 6.359375 4.273438 6.359375 4.117188 6.519531 3.960938 6.675781 3.960938 6.925781 4.117188 7.082031L4.484375 7.453125C4.3125 7.796875 4.3125 8.203125 4.484375 8.550781L4.117188 8.917969C3.960938 9.074219 3.960938 9.328125 4.117188 9.484375zM5.917969 7.683594C6.09375 7.859375 6.09375 8.140625 5.917969 8.316406 5.742188 8.492188 5.457031 8.492188 5.28125 8.316406 5.109375 8.140625 5.109375 7.859375 5.28125 7.683594 5.371094 7.59375 5.484375 7.550781 5.601562 7.550781 5.714844 7.550781 5.828125 7.59375 5.917969 7.683594zM5.917969 7.683594"/>
    <path d="M 24 10.398438 C 24 9.808594 23.675781 9.300781 23.199219 9.023438 L 23.199219 6.683594 C 23.199219 5.425781 22.175781 4.398438 20.914062 4.398438 L 3.085938 4.398438 C 1.824219 4.398438 0.800781 5.425781 0.800781 6.683594 L 0.800781 9.023438 C 0.324219 9.300781 0 9.808594 0 10.398438 L 0 18.398438 L 0.398438 18.398438 L 0.398438 19.601562 L 2.800781 19.601562 L 2.800781 18.398438 L 21.199219 18.398438 L 21.199219 19.601562 L 23.601562 19.601562 L 23.601562 18.398438 L 24 18.398438 Z M 3.199219 13.199219 L 3.199219 12 L 20.800781 12 L 20.800781 13.199219 Z M 21.601562 14 L 21.601562 10.398438 C 21.601562 9.957031 21.957031 9.601562 22.398438 9.601562 C 22.445312 9.601562 22.488281 9.605469 22.53125 9.613281 C 22.574219 9.621094 22.621094 9.632812 22.667969 9.652344 L 22.730469 9.671875 C 23.007812 9.796875 23.199219 10.078125 23.199219 10.398438 L 23.199219 17.601562 L 21.601562 17.601562 Z M 1.601562 6.683594 C 1.601562 5.867188 2.265625 5.199219 3.085938 5.199219 L 20.914062 5.199219 C 21.734375 5.199219 22.398438 5.867188 22.398438 6.683594 L 22.398438 8.800781 C 21.519531 8.800781 20.800781 9.519531 20.800781 10.398438 L 20.800781 11.199219 L 3.199219 11.199219 L 3.199219 10.398438 C 3.199219 9.519531 2.480469 8.800781 1.601562 8.800781 Z M 0.800781 10.398438 C 0.800781 10.078125 0.992188 9.796875 1.269531 9.671875 L 1.332031 9.652344 C 1.378906 9.632812 1.425781 9.621094 1.46875 9.613281 C 1.511719 9.605469 1.554688 9.601562 1.601562 9.601562 C 2.042969 9.601562 2.398438 9.957031 2.398438 10.398438 L 2.398438 17.601562 L 0.800781 17.601562 Z M 2 18.800781 L 1.199219 18.800781 L 1.199219 18.398438 L 2 18.398438 Z M 3.199219 14 L 11.601562 14 L 11.601562 17.601562 L 3.199219 17.601562 Z M 20.800781 17.601562 L 12.398438 17.601562 L 12.398438 14 L 20.800781 14 Z M 22.800781 18.800781 L 22 18.800781 L 22 18.398438 L 22.800781 18.398438 Z M 22.800781 18.800781"/>
</svg>

<svg xmlns="http://www.w3.org/2000/svg" width="32" height="32" viewBox="0 0 24 24">
    <path d="M16.918 9.484c.078.079.18.118.281.118.102 0 .207-.04.285-.118l.368-.37c.171.085.359.132.546.132.192 0 .38-.047.551-.133l.367.371a.399.399 0 0 0 .567 0 .4.4 0 0 0 0-.566l-.367-.367a1.267 1.267 0 0 0 0-1.102l.367-.367a.4.4 0 0 0-.567-.566l-.367.37a1.233 1.233 0 0 0-1.097 0l-.372-.37a.396.396 0 0 0-.562 0 .4.4 0 0 0 0 .566l.367.367a1.241 1.241 0 0 0 0 1.102l-.367.367a.4.4 0 0 0 0 .566zm1.8-1.8a.453.453 0 0 1 0 .632.45.45 0 0 1-.636 0 .446.446 0 0 1 0-.632.446.446 0 0 1 .637 0zm0 0M10.516 9.484a.405.405 0 0 0 .285.118c.101 0 .203-.04.281-.118l.367-.37c.176.085.364.132.551.132.188 0 .375-.047.55-.133l.368.371c.078.079.18.118.281.118a.4.4 0 0 0 .285-.684l-.37-.367a1.241 1.241 0 0 0 0-1.102l.37-.367a.396.396 0 0 0 0-.562.394.394 0 0 0-.566 0l-.367.367a1.241 1.241 0 0 0-1.102 0l-.367-.367a.394.394 0 0 0-.566 0 .396.396 0 0 0 0 .562l.37.371c-.171.344-.171.75 0 1.098l-.37.367a.4.4 0 0 0 0 .566zm1.8-1.8a.446.446 0 0 1 0 .632.446.446 0 0 1-.632 0 .446.446 0 0 1 0-.632A.437.437 0 0 1 12 7.55c.113 0 .23.043.316.133zm0 0M4.117 9.484a.399.399 0 0 0 .566 0l.368-.37c.172.085.36.132.55.132.188 0 .376-.047.547-.133l.368.371a.405.405 0 0 0 .285.118.4.4 0 0 0 .281-.684l-.367-.367a1.241 1.241 0 0 0 0-1.102l.367-.367a.396.396 0 0 0 0-.562.394.394 0 0 0-.566 0l-.368.367a1.233 1.233 0 0 0-1.097 0l-.367-.367a.394.394 0 0 0-.567 0 .396.396 0 0 0 0 .562l.367.371c-.171.344-.171.75 0 1.098l-.367.367a.4.4 0 0 0 0 .566zm1.801-1.8a.446.446 0 0 1 0 .632.45.45 0 0 1-.637 0 .453.453 0 0 1 0-.632.446.446 0 0 1 .637 0zm0 0"/>
    <path d="M24 10.398a1.59 1.59 0 0 0-.8-1.375v-2.34a2.288 2.288 0 0 0-2.286-2.285H3.086A2.288 2.288 0 0 0 .8 6.684v2.34A1.59 1.59 0 0 0 0 10.397v8h.398v1.204h2.403v-1.204h18.398v1.204h2.403v-1.204H24zM3.2 13.2V12h17.6v1.2zM21.601 14v-3.602a.795.795 0 0 1 .93-.785c.042.008.09.02.136.04l.062.019a.799.799 0 0 1 .47.726v7.204h-1.598zm-20-7.316c0-.817.664-1.485 1.484-1.485h17.828c.82 0 1.484.668 1.484 1.485V8.8c-.878 0-1.597.719-1.597 1.597v.801H3.199v-.8c0-.88-.719-1.598-1.597-1.598zM.8 10.398c0-.32.191-.601.469-.726l.062-.02a.662.662 0 0 1 .27-.05c.441 0 .796.355.796.796v7.204H.801zM2 18.801h-.8v-.403H2zM3.2 14h8.402v3.602H3.199zm17.6 3.602h-8.402V14h8.403zm2 1.199H22v-.403h.8zm0 0"/>
</svg>
